dist/img/contacts/social/instagram.svg

<svg width="24" height="24" viewBox="0 0 24 24" fill="none" xmlns="http://www.w3.org/2000/svg">
<g clip-path="url(#clip0)">
<path d="M23.9765 7.05607C23.9203 5.78085 23.7141 4.90416 23.4187 4.14449C23.1139 3.33812 22.6451 2.61617 22.0308 2.01602C21.4307 1.40652 20.704 0.932921 19.9069 0.632936C19.1429 0.337529 18.2707 0.131312 16.9955 0.0750879C15.7108 0.0141019 15.3029 0 12.0445 0C8.78604 0 8.37819 0.0141019 7.09821 0.0703262C5.823 0.126551 4.9463 0.332951 4.18682 0.628174C3.38026 0.932922 2.65832 1.40176 2.05817 2.01602C1.44867 2.61617 0.975254 3.34288 0.675085 4.13991C0.379679 4.90416 0.173462 5.77609 0.117237 7.0513C0.0562514 8.33604 0.0421495 8.7439 0.0421495 12.0023C0.0421495 15.2608 0.0562514 15.6686 0.112476 16.9486C0.1687 18.2238 0.3751 19.1005 0.670507 19.8602C0.975254 20.6666 1.44867 21.3885 2.05817 21.9887C2.65832 22.5982 3.38503 23.0718 4.18206 23.3718C4.9463 23.6672 5.81824 23.8734 7.09364 23.9296C8.37343 23.986 8.78146 23.9999 12.0399 23.9999C15.2984 23.9999 15.7062 23.986 16.9862 23.9296C18.2614 23.8734 19.1381 23.6672 19.8976 23.3718C21.5105 22.7482 22.7857 21.4729 23.4093 19.8602C23.7045 19.096 23.9109 18.2238 23.9672 16.9486C24.0234 15.6686 24.0375 15.2608 24.0375 12.0023C24.0375 8.7439 24.0327 8.33604 23.9765 7.05607ZM21.8153 16.8549C21.7636 18.027 21.5667 18.6599 21.4026 19.0819C20.9994 20.1274 20.1695 20.9572 19.124 21.3605C18.702 21.5246 18.0645 21.7215 16.897 21.7729C15.6311 21.8293 15.2515 21.8433 12.0493 21.8433C8.84703 21.8433 8.46262 21.8293 7.20132 21.7729C6.02922 21.7215 5.39628 21.5246 4.97433 21.3605C4.45402 21.1682 3.98042 20.8634 3.596 20.4649C3.19749 20.0758 2.89274 19.6069 2.70044 19.0866C2.53635 18.6647 2.33947 18.027 2.28801 16.8596C2.2316 15.5937 2.21768 15.2139 2.21768 12.0117C2.21768 8.80946 2.2316 8.42505 2.28801 7.16394C2.33947 5.99183 2.53635 5.3589 2.70044 4.93694C2.89274 4.41645 3.19749 3.94303 3.60077 3.55843C3.98976 3.15992 4.4586 2.85517 4.97909 2.66306C5.40104 2.49896 6.03874 2.30209 7.20608 2.25044C8.47196 2.19422 8.85179 2.18011 12.0538 2.18011C15.2608 2.18011 15.6405 2.19422 16.9018 2.25044C18.0739 2.30209 18.7068 2.49896 19.1288 2.66306C19.6491 2.85517 20.1227 3.15992 20.5071 3.55843C20.9056 3.94761 21.2103 4.41645 21.4026 4.93694C21.5667 5.3589 21.7636 5.99641 21.8153 7.16394C21.8715 8.42981 21.8856 8.80946 21.8856 12.0117C21.8856 15.2139 21.8715 15.589 21.8153 16.8549Z" fill="white"/>
<path d="M12.0445 5.83716C8.6408 5.83716 5.87921 8.59856 5.87921 12.0024C5.87921 15.4063 8.6408 18.1677 12.0445 18.1677C15.4483 18.1677 18.2097 15.4063 18.2097 12.0024C18.2097 8.59856 15.4483 5.83716 12.0445 5.83716ZM12.0445 16.0017C9.83634 16.0017 8.04522 14.2107 8.04522 12.0024C8.04522 9.79411 9.83634 8.00317 12.0445 8.00317C14.2528 8.00317 16.0437 9.79411 16.0437 12.0024C16.0437 14.2107 14.2528 16.0017 12.0445 16.0017Z" fill="white"/>
<path d="M19.893 5.59312C19.893 6.38795 19.2485 7.03242 18.4535 7.03242C17.6587 7.03242 17.0142 6.38795 17.0142 5.59312C17.0142 4.7981 17.6587 4.15381 18.4535 4.15381C19.2485 4.15381 19.893 4.7981 19.893 5.59312Z" fill="white"/>
</g>
<defs>
<clipPath id="clip0">
<rect width="24" height="24" fill="white"/>
</clipPath>
</defs>
</svg>

<svg width="24" height="24" fill="none" xmlns="http://www.w3.org/2000/svg"><g clip-path="url(#clip0)" fill="#fff"><path d="M23.977 7.056c-.057-1.275-.263-2.152-.558-2.912a5.857 5.857 0 00-1.388-2.128A5.905 5.905 0 0019.907.633C19.143.338 18.27.13 16.995.075 15.711.015 15.303 0 12.046 0 8.785 0 8.377.014 7.097.07c-1.274.057-2.151.263-2.91.558a5.856 5.856 0 00-2.129 1.388A5.909 5.909 0 00.675 4.14C.38 4.904.173 5.776.117 7.05.057 8.336.042 8.744.042 12.002c0 3.259.014 3.667.07 4.947.057 1.275.263 2.151.559 2.911a5.918 5.918 0 001.387 2.129 5.9 5.9 0 002.124 1.383c.764.295 1.636.501 2.912.558 1.28.056 1.687.07 4.946.07 3.258 0 3.666-.014 4.946-.07 1.275-.057 2.152-.263 2.912-.558a6.139 6.139 0 003.511-3.512c.296-.764.502-1.636.558-2.911.056-1.28.07-1.688.07-4.947 0-3.258-.004-3.666-.06-4.946zm-2.162 9.799c-.051 1.172-.248 1.805-.412 2.227a3.981 3.981 0 01-2.279 2.278c-.422.165-1.06.361-2.227.413-1.266.056-1.645.07-4.848.07-3.202 0-3.586-.014-4.848-.07-1.172-.052-1.805-.248-2.227-.413a3.693 3.693 0 01-1.378-.895 3.73 3.73 0 01-.896-1.378c-.164-.422-.36-1.06-.412-2.227-.056-1.266-.07-1.646-.07-4.848 0-3.203.014-3.587.07-4.848.051-1.172.248-1.805.412-2.227.193-.52.497-.994.9-1.379a3.726 3.726 0 011.38-.895c.421-.164 1.059-.36 2.226-.413 1.266-.056 1.646-.07 4.848-.07 3.207 0 3.586.014 4.848.07 1.172.052 1.805.249 2.227.413.52.192.994.497 1.378.895.399.39.703.858.896 1.379.164.422.36 1.06.412 2.227.056 1.266.07 1.645.07 4.848 0 3.202-.014 3.577-.07 4.843z"/><path d="M12.044 5.837a6.167 6.167 0 00-6.165 6.165 6.167 6.167 0 006.165 6.166 6.167 6.167 0 006.166-6.166 6.167 6.167 0 00-6.166-6.165zm0 10.165a4 4 0 11.002-8 4 4 0 01-.002 8zm7.849-10.409a1.44 1.44 0 11-2.879 0 1.44 1.44 0 012.879 0z"/></g><defs><clipPath id="clip0"><path fill="#fff" d="M0 0h24v24H0z"/></clipPath></defs></svg>
